X:1
T:Title
%%score { 1 | ( 2 3 ) }
L:1/8
Q:1/4=100
M:4/4
K:F
V:1 treble nm="Grand Piano"
V:2 bass 
V:3 bass 
V:1
 A2 AA C3 C | D2 B2 A3 A | [FA]2 [EG]2 [EB]2 E2 | F6 z2 | A2 AA C3 C | D2 B2 A3 A | A2 G2 =B2 G2 | %7
w: Charles~D.~Tillman * * * *|||||||
[M:3/4] [Ec]6 |[M:1/4] c2 |[M:4/4] dccA c2 Ac | [Ec][EB][EB][_EA] [=EB]4 | C2 E[EG] [Ec]2 [Ed]2 | %12
w: |||||
 A4 z2 c2 | dccA c2 Ac | [Ec][EB][EB][_EA] [=EB]4 | CC[EB][EB] [EA]2 G2 | F6 z2 |] %17
w: |||||
V:2
 [F,CF]2 [F,CF][F,CF] [F,A,]3 [F,A,] | [F,B,]2 [F,B,D]2 [F,CF]3 [F,CF] | %2
 [C,C]2 [C,B,]2 [C,G,]2 [C,B,C]2 | [F,A,C]6 z2 | [F,CF]2 [F,CF][F,CF] [F,A,]3 [F,A,] | %5
 [F,B,]2 [F,B,D]2[K:treble] [F,CF]3 [F,CF] | [G,=B,F]2 [G,B,F]2 [G,DF]2 [G,B,F]2 | %7
[M:3/4][K:bass] [C,C]6 |[M:1/4] [F,A,F]2 | %9
[M:4/4] [F,B,F][F,A,F][F,A,F][F,CF] [F,A,F]2 [F,CF][F,A,F] | [C,G,][C,G,][C,G,][C,^F,] [C,G,]4 | %11
 [C,B,]2 [C,B,C][C,B,] [C,G,]2 [C,C]2 | [F,CF]4 z2 [F,A,F]2 | z4 z2 .C2 | %14
 [C,G,][C,G,][C,G,][C,^F,] [C,G,]4 | [C,B,][C,B,][C,G,][C,G,] [C,C]2 [C,B,C]2 | [F,A,C]6 z2 |] %17
V:3
 x8 | x8 | x8 | x8 | x8 | x4[K:treble] x4 | x8 |[M:3/4][K:bass] x6 |[M:1/4] x2 |[M:4/4] x8 | x8 | %11
 x8 | x8 | [F,B,F][F,A,F][F,A,F][F,CF] [F,A,F]2 [F,F]-[F,A,F] | x8 | x8 | x8 |] %17

